assets/icons/qvision/timer_3.svg

<svg width="24" height="24" viewBox="0 0 24 24" fill="none" xmlns="http://www.w3.org/2000/svg">
<g clip-path="url(#clip0_147_3749)">
<path d="M11.6099 12.97C11.4499 12.73 11.2499 12.51 10.9899 12.32C10.7399 12.13 10.4299 11.97 10.0599 11.84C10.3599 11.7 10.6299 11.54 10.8599 11.34C11.0899 11.14 11.2799 10.93 11.4299 10.7C11.5799 10.47 11.6999 10.24 11.7699 9.99C11.8499 9.75 11.8799 9.5 11.8799 9.26C11.8799 8.71 11.7899 8.22 11.5999 7.8C11.4199 7.38 11.1599 7.03 10.8199 6.74C10.4899 6.46 10.0899 6.24 9.61994 6.1C9.16994 5.97 8.64994 5.9 8.08994 5.9C7.53994 5.9 7.02994 5.98 6.56994 6.14C6.09994 6.31 5.69994 6.54 5.36994 6.83C5.03994 7.12 4.76994 7.46 4.58994 7.86C4.38994 8.25 4.29994 8.69 4.29994 9.15H6.27994C6.27994 8.89 6.32994 8.66 6.41994 8.46C6.50994 8.26 6.63994 8.08 6.79994 7.94C6.96994 7.8 7.15994 7.69 7.37994 7.61C7.59994 7.53 7.83994 7.49 8.10994 7.49C8.71994 7.49 9.16994 7.65 9.46994 7.96C9.76994 8.27 9.90994 8.71 9.90994 9.28C9.90994 9.55 9.86994 9.8 9.78994 10.02C9.70994 10.24 9.57994 10.43 9.40994 10.59C9.23994 10.75 9.02994 10.87 8.77994 10.96C8.52994 11.05 8.22994 11.09 7.88994 11.09H6.71994V12.66H7.89994C8.23994 12.66 8.53994 12.7 8.80994 12.77C9.07994 12.85 9.30994 12.96 9.49994 13.12C9.68994 13.28 9.83994 13.48 9.93994 13.73C10.0399 13.97 10.0999 14.27 10.0999 14.6C10.0999 15.22 9.91994 15.69 9.56994 16.02C9.21994 16.35 8.72994 16.51 8.11994 16.51C7.82994 16.51 7.55994 16.47 7.31994 16.38C7.07994 16.3 6.87994 16.18 6.70994 16.02C6.53994 15.86 6.40994 15.68 6.31994 15.46C6.22994 15.24 6.17994 15 6.17994 14.74H4.18994C4.18994 15.29 4.29994 15.77 4.50994 16.19C4.71994 16.61 5.00994 16.96 5.36994 17.24C5.72994 17.52 6.13994 17.73 6.60994 17.87C7.07994 18.01 7.56994 18.08 8.08994 18.08C8.65994 18.08 9.17994 18 9.66994 17.85C10.1599 17.7 10.5799 17.47 10.9299 17.17C11.2899 16.87 11.5699 16.51 11.7699 16.07C11.9699 15.64 12.0699 15.14 12.0699 14.59C12.0699 14.3 12.0299 14.01 11.9599 13.73C11.8799 13.48 11.7699 13.22 11.6099 12.97ZM20.8699 14.37C20.7299 14.09 20.5199 13.84 20.2399 13.63C19.9599 13.42 19.6299 13.24 19.2299 13.1C18.8299 12.96 18.3799 12.83 17.8799 12.72C17.5299 12.65 17.2399 12.57 17.0099 12.49C16.7799 12.41 16.5999 12.33 16.4599 12.24C16.3199 12.15 16.2299 12.05 16.1799 11.94C16.1299 11.83 16.0999 11.7 16.0999 11.55C16.0999 11.4 16.1299 11.27 16.1899 11.14C16.2499 11.01 16.3399 10.89 16.4599 10.8C16.5799 10.7 16.7299 10.62 16.9099 10.56C17.0899 10.5 17.3099 10.47 17.5499 10.47C17.7999 10.47 18.0199 10.51 18.2099 10.58C18.3999 10.65 18.5599 10.75 18.6899 10.87C18.8199 10.99 18.9099 11.13 18.9799 11.29C19.0399 11.45 19.0799 11.61 19.0799 11.78H21.0299C21.0299 11.39 20.9499 11.03 20.7899 10.69C20.6299 10.35 20.3999 10.06 20.0999 9.81C19.7999 9.56 19.4399 9.37 19.0099 9.22C18.5799 9.07 18.0899 9 17.5499 9C17.0399 9 16.5699 9.07 16.1599 9.21C15.7499 9.35 15.3899 9.54 15.0999 9.78C14.8099 10.02 14.5899 10.3 14.4299 10.62C14.2699 10.94 14.1999 11.27 14.1999 11.63C14.1999 11.99 14.2799 12.31 14.4299 12.59C14.5799 12.87 14.7999 13.11 15.0699 13.32C15.3399 13.53 15.6699 13.7 16.0499 13.85C16.4299 13.99 16.8599 14.11 17.3199 14.21C17.7099 14.29 18.0299 14.38 18.2699 14.47C18.5099 14.56 18.6999 14.66 18.8399 14.76C18.9699 14.86 19.0599 14.98 19.1099 15.1C19.1599 15.22 19.1799 15.35 19.1799 15.49C19.1799 15.81 19.0499 16.06 18.7799 16.26C18.5099 16.46 18.1199 16.55 17.6099 16.55C17.3899 16.55 17.1799 16.53 16.9699 16.47C16.7599 16.42 16.5699 16.34 16.4099 16.23C16.2399 16.12 16.1099 15.97 15.9999 15.79C15.8899 15.61 15.8299 15.38 15.8199 15.12H13.9299C13.9299 15.48 14.0099 15.83 14.1699 16.17C14.3299 16.51 14.5599 16.82 14.8699 17.1C15.1799 17.37 15.5599 17.59 16.0199 17.76C16.4799 17.93 16.9999 18.01 17.5999 18.01C18.1299 18.01 18.6099 17.95 19.0399 17.82C19.4699 17.69 19.8399 17.51 20.1499 17.28C20.4599 17.05 20.6899 16.77 20.8599 16.45C21.0299 16.13 21.1099 15.78 21.1099 15.39C21.0899 14.99 21.0199 14.65 20.8699 14.37Z" fill="#323232"/>
</g>
<defs>
<clipPath id="clip0_147_3749">
<rect width="24" height="24" fill="white"/>
</clipPath>
</defs>
</svg>

<svg xmlns="http://www.w3.org/2000/svg" height="24" viewBox="0 0 24 24" width="24"><path d="M0 0h24v24H0zm0 0h24v24H0z" fill="none"/><path d="M11.61 12.97c-.16-.24-.36-.46-.62-.65-.25-.19-.56-.35-.93-.48.3-.14.57-.3.8-.5.23-.2.42-.41.57-.64.15-.23.27-.46.34-.71.08-.24.11-.49.11-.73 0-.55-.09-1.04-.28-1.46-.18-.42-.44-.77-.78-1.06-.33-.28-.73-.5-1.2-.64-.45-.13-.97-.2-1.53-.2-.55 0-1.06.08-1.52.24-.47.17-.87.4-1.2.69-.33.29-.6.63-.78 1.03-.2.39-.29.83-.29 1.29h1.98c0-.26.05-.49.14-.69.09-.2.22-.38.38-.52.17-.14.36-.25.58-.33.22-.08.46-.12.73-.12.61 0 1.06.16 1.36.47.3.31.44.75.44 1.32 0 .27-.04.52-.12.74-.08.22-.21.41-.38.57-.17.16-.38.28-.63.37-.25.09-.55.13-.89.13H6.72v1.57H7.9c.34 0 .64.04.91.11.27.08.5.19.69.35.19.16.34.36.44.61.1.24.16.54.16.87 0 .62-.18 1.09-.53 1.42-.35.33-.84.49-1.45.49-.29 0-.56-.04-.8-.13-.24-.08-.44-.2-.61-.36-.17-.16-.3-.34-.39-.56-.09-.22-.14-.46-.14-.72H4.19c0 .55.11 1.03.32 1.45.21.42.5.77.86 1.05s.77.49 1.24.63.96.21 1.48.21c.57 0 1.09-.08 1.58-.23.49-.15.91-.38 1.26-.68.36-.3.64-.66.84-1.1.2-.43.3-.93.3-1.48 0-.29-.04-.58-.11-.86-.08-.25-.19-.51-.35-.76zm9.26 1.4c-.14-.28-.35-.53-.63-.74-.28-.21-.61-.39-1.01-.53s-.85-.27-1.35-.38c-.35-.07-.64-.15-.87-.23-.23-.08-.41-.16-.55-.25-.14-.09-.23-.19-.28-.3-.05-.11-.08-.24-.08-.39s.03-.28.09-.41c.06-.13.15-.25.27-.34.12-.1.27-.18.45-.24s.4-.09.64-.09c.25 0 .47.04.66.11.19.07.35.17.48.29.13.12.22.26.29.42.06.16.1.32.1.49h1.95c0-.39-.08-.75-.24-1.09-.16-.34-.39-.63-.69-.88-.3-.25-.66-.44-1.09-.59-.43-.15-.92-.22-1.46-.22-.51 0-.98.07-1.39.21-.41.14-.77.33-1.06.57-.29.24-.51.52-.67.84-.16.32-.23.65-.23 1.01s.08.68.23.96c.15.28.37.52.64.73.27.21.6.38.98.53.38.14.81.26 1.27.36.39.08.71.17.95.26s.43.19.57.29c.13.1.22.22.27.34.05.12.07.25.07.39 0 .32-.13.57-.4.77-.27.2-.66.29-1.17.29-.22 0-.43-.02-.64-.08-.21-.05-.4-.13-.56-.24-.17-.11-.3-.26-.41-.44-.11-.18-.17-.41-.18-.67h-1.89c0 .36.08.71.24 1.05.16.34.39.65.7.93.31.27.69.49 1.15.66.46.17.98.25 1.58.25.53 0 1.01-.06 1.44-.19.43-.13.8-.31 1.11-.54.31-.23.54-.51.71-.83.17-.32.25-.67.25-1.06-.02-.4-.09-.74-.24-1.02z"/></svg>
